X:99
T:Le Petit Doit or.... Ru2.099
%%VWML:RutherfordVol2-2249-p50-0
F:http://www.vwml.org/record/RutherfordVol2/2249/p50
L:1/8
B:RUTHERFORD Complete Collection of 200 Country Dances Vol.2; 1759.
Z:vmp.Mike Hicken 2015 www.village-music-project.org.uk
N: * This note is shown as a crotchet in the original.
M:6/8
Q:3/8=120
K:G
D2D G2G|ABc B2A|BdD G2G|ABc B2A :|
B2c d2d|ABc B2A|G2G F2F|E2E D2c|
BdD G2G|ABc B2A|BdD G2G|cBA "*"G3 :|
W:
W: The first Man casts off behind the 2d Man & foots
W: it (to?) the 2d Wo: but not turn & stays in the 2d Mans
W: Place .|  the first Wo: the same to the 2d Man :|  the
W: first Man foots it to the 3d Man his Partner to the 3d
W: Wo: at the same time & turn your Partner lead thro
W: the 3d Cu: & cast up into the 2d Cu: Place | the
W: first Man foot it to the 2d. Man his Partner to the 2d
W: Wo: at the same time & turn your Partner Lead up
W: to the top & cast off :|
T:Betty Blue. Ru2.100
L:1/4
B:RUTHERFORD Complete Collection of 200 Country Dances Vol.2; 1759.
Z:vmp.Mike Hicken 2015 www.village-music-project.org.uk
M:C
Q:1/2=140
K:C
g>agf|edef|g>age|d2d2|g>agf|edef|g>age|c2c2 :|
|: d>edc|BABc|d>edB|G2G2 |d>edc|BABc|
d>edB|G3g|G3g|E3g|GgGg|G2G2|e>fed|
cBcd|e>fed|c2c2|e>fed|cBcd|e>fed|c2c2 :|
W:
W: The first Man foots round the 2d Man | the first
W: Wo: foots round 2d Wo: :| the first & 2d Cu: foot
W: it all 4 & turn single Clap hands 5 times cross
W: over half figure |  Hands round 4 with 3d Cu:
W: Clap hands 5 times Right & Left at top |
